src/pics/icon-card-case_study.svg

<svg fill="none" height="88" viewBox="0 0 98 88" width="98" xmlns="http://www.w3.org/2000/svg"><g fill="#000"><path d="m53.492 72.07h-40.664c-.8633 0-1.5586.6992-1.5586 1.5586 0 .8633.6992 1.5586 1.5586 1.5586h40.664c.8633 0 1.5586-.6992 1.5586-1.5586s-.6992-1.5586-1.5586-1.5586z"/><path d="m31.426 65.391c.8633 0 1.5586-.6953 1.5586-1.5586v-21.75c0-.8633-.6992-1.5586-1.5586-1.5586h-20.156c-.8594 0-1.5586.6992-1.5586 1.5586v21.75c0 .8633.6992 1.5586 1.5586 1.5586zm-18.598-21.746h17.035v18.629h-17.035z"/><path d="m11.27 33.668h20.156c.8633 0 1.5586-.6953 1.5586-1.5586v-21.75c0-.86328-.6992-1.5586-1.5586-1.5586l-20.156-.00391c-.8594 0-1.5586.69922-1.5586 1.55861v21.75c-.00391.8672.6953 1.5625 1.5586 1.5625zm1.5586-21.75h17.035v18.629h-17.035z"/><path d="m96.062 80.078-10.285-10.43c-.8203-.832-1.9648-1.3125-3.1328-1.3125-.6172 0-1.2109.1328-1.7617.375l-4.6836-4.7539c2.3203-2.875 3.7148-6.5469 3.7148-10.539 0-8.4258-6.1992-15.41-14.223-16.527v-18.781c0-.4336-.1797-.8477-.5-1.1445l-17.484-16.195006-.043-.042969c-.0234-.019531-.0468-.035156-.0703-.054687-.0469-.039063-.0937-.078125-.1445-.11328-.0352-.023438-.0703-.039063-.1055-.058594-.0508-.027344-.1015-.058594-.1562-.078125-.043-.015625-.0899-.027344-.1328-.039063-.0508-.015624-.0977-.03125-.1485-.042968-.0898-.019532-.1836-.027344-.2773-.027344-.0078 0-.0156-.003906-.0235-.003906h-38.49996c-4.1211 0-7.4766 3.394502-7.4766 7.562502v69.77304c0 4.1719 3.3555 7.5625 7.4766 7.5625h50.10496c4.1211 0 7.4766-3.3906 7.4766-7.5625v-7.6992c3.1484-.4375 6.0117-1.7773 8.3359-3.7539l4.6445 4.7109c-.2812.6132-.4335 1.2891-.4218 1.9766.0156 1.1758.4765 2.2617 1.2969 3.0586l10.27 10.418c.8515.8593 1.9648 1.332 3.1484 1.332h.0586c1.1758-.0157 2.2656-.5 3.0469-1.332.8554-.8711 1.3203-2.0156 1.3047-3.2227-.0157-1.1758-.4924-2.2698-1.3088-3.055zm-19.27-26.66c0 7.2148-5.5703 13.129-12.574 13.543-.0312-.0039-.0586-.0078-.0898-.0078-.0743 0-.1485.0117-.2188.0234-.1562.0078-.3125.0117-.4727.0117-3.9766 0-7.5508-1.7773-9.9961-4.5859v-.1289h-.1093c-2.0234-2.3789-3.2461-5.4727-3.2461-8.8516 0-7.4805 5.9922-13.566 13.355-13.566.1523 0 .3007.0078.4531.0117.0781.0118.1562.0235.2383.0235.0351 0 .0664-.0078.0976-.0117 6.9961.4179 12.5628 6.3277 12.5628 13.5386zm-28.629-47.97301 11.984 11.10501h-9.9023c-1.1484 0-2.082-.957-2.082-2.1367zm10.047 76.64501h-50.105c-2.4023 0-4.3555-1.9922-4.3555-4.4414v-69.77701c0-2.4492 1.9531-4.4414 4.3555-4.4414h36.938v10.98001c0 2.8984 2.3359 5.2578 5.2031 5.2578h12.32v17.086c-4.3438.2305-8.2422 2.1719-11.059 5.168h-11.309c-.8633 0-1.5586.6992-1.5586 1.5586 0 .8633.6992 1.5586 1.5586 1.5586h8.9922c-1.1523 2.0039-1.9102 4.2656-2.1523 6.6797h-6.832c-.8633 0-1.5586.6992-1.5586 1.5586 0 .8633.6992 1.5586 1.5586 1.5586h6.8125c.2266 2.7109 1.0977 5.2383 2.457 7.4297h-9.2695c-.8633 0-1.5586.6992-1.5586 1.5586 0 .8633.6992 1.5586 1.5586 1.5586h11.766c2.7734 2.7227 6.4844 4.4727 10.59 4.6914v7.5625c.0039 2.4609-1.9496 4.4531-4.352 4.4531zm35.605 2.1094c-.2187.2344-.5195.3672-.8359.3711-.3555-.0196-.6797-.1406-.9414-.4024l-10.2891-10.434-.0312-.0312c-.3008-.2891-.3516-.668-.3555-.8672-.0039-.3164.0977-.6172.2735-.8555.0547-.039.1093-.0781.1562-.1289.0508-.0468.0899-.1015.1289-.1562.2618-.1875.5274-.2422.7227-.2422.3437 0 .668.1367.9141.3867l10.316 10.461c.2382.2305.371.5391.3789.8789.0039.3672-.1403.7191-.4372 1.0199z"/></g></svg>

<svg width="98" height="88" viewBox="0 0 98 88" fill="none" xmlns="http://www.w3.org/2000/svg">
<path d="M53.492 72.07H12.828C11.9647 72.07 11.2694 72.7692 11.2694 73.6286C11.2694 74.4919 11.9686 75.1872 12.828 75.1872H53.492C54.3553 75.1872 55.0506 74.488 55.0506 73.6286C55.0506 72.7692 54.3514 72.07 53.492 72.07Z" fill="black"/>
<path d="M31.426 65.391C32.2893 65.391 32.9846 64.6957 32.9846 63.8324V42.0824C32.9846 41.2191 32.2854 40.5238 31.426 40.5238H11.27C10.4106 40.5238 9.7114 41.223 9.7114 42.0824V63.8324C9.7114 64.6957 10.4106 65.391 11.27 65.391H31.426ZM12.828 43.645H29.863V62.274H12.828V43.645Z" fill="black"/>
<path d="M11.27 33.668H31.426C32.2893 33.668 32.9846 32.9727 32.9846 32.1094V10.3594C32.9846 9.49612 32.2854 8.8008 31.426 8.8008L11.27 8.79689C10.4106 8.79689 9.7114 9.49611 9.7114 10.3555V32.1055C9.70749 32.9727 10.4067 33.668 11.27 33.668ZM12.8286 11.918H29.8636V30.547H12.8286V11.918Z" fill="black"/>
<path d="M96.062 80.078L85.777 69.648C84.9567 68.816 83.8122 68.3355 82.6442 68.3355C82.027 68.3355 81.4333 68.4683 80.8825 68.7105L76.1989 63.9566C78.5192 61.0816 79.9137 57.4097 79.9137 53.4176C79.9137 44.9918 73.7145 38.0076 65.6907 36.8906V18.1096C65.6907 17.676 65.511 17.2619 65.1907 16.9651L47.7067 0.770094L47.6637 0.727125C47.6403 0.707594 47.6169 0.691969 47.5934 0.672438C47.5465 0.633375 47.4997 0.594313 47.4489 0.559158C47.4137 0.53572 47.3786 0.520095 47.3434 0.500564C47.2926 0.47322 47.2419 0.44197 47.1872 0.422439C47.1442 0.406814 47.0973 0.395095 47.0544 0.383376C47.0036 0.367752 46.9567 0.352126 46.9059 0.340408C46.8161 0.320876 46.7223 0.313064 46.6286 0.313064C46.6208 0.313064 46.613 0.309158 46.6051 0.309158H8.10514C3.98404 0.309158 0.62854 3.70366 0.62854 7.87166V77.6447C0.62854 81.8166 3.98404 85.2072 8.10514 85.2072H58.2101C62.3312 85.2072 65.6867 81.8166 65.6867 77.6447V69.9455C68.8351 69.508 71.6984 68.1682 74.0226 66.1916L78.6671 70.9025C78.3859 71.5157 78.2336 72.1916 78.2453 72.8791C78.2609 74.0549 78.7218 75.1408 79.5422 75.9377L89.8122 86.3557C90.6637 87.215 91.777 87.6877 92.9606 87.6877H93.0192C94.195 87.672 95.2848 87.1877 96.0661 86.3557C96.9215 85.4846 97.3864 84.3401 97.3708 83.133C97.3551 81.9572 96.8784 80.8632 96.062 80.078ZM76.792 53.418C76.792 60.6328 71.2217 66.547 64.218 66.961C64.1868 66.9571 64.1594 66.9532 64.1282 66.9532C64.0539 66.9532 63.9797 66.9649 63.9094 66.9766C63.7532 66.9844 63.5969 66.9883 63.4367 66.9883C59.4601 66.9883 55.8859 65.211 53.4406 62.4024V62.2735H53.3313C51.3079 59.8946 50.0852 56.8008 50.0852 53.4219C50.0852 45.9414 56.0774 39.8559 63.4402 39.8559C63.5925 39.8559 63.7409 39.8637 63.8933 39.8676C63.9714 39.8794 64.0495 39.8911 64.1316 39.8911C64.1667 39.8911 64.198 39.8833 64.2292 39.8794C71.2253 40.2973 76.792 46.2071 76.792 53.418ZM48.163 5.44499L60.147 16.55H50.2447C49.0963 16.55 48.1627 15.593 48.1627 14.4133L48.163 5.44499ZM58.21 82.09H8.105C5.7027 82.09 3.7495 80.0978 3.7495 77.6486V7.87159C3.7495 5.42239 5.7026 3.43019 8.105 3.43019H45.043V14.4102C45.043 17.3086 47.3789 19.668 50.2461 19.668H62.5661V36.754C58.2223 36.9845 54.3239 38.9259 51.5071 41.922H40.1981C39.3348 41.922 38.6395 42.6212 38.6395 43.4806C38.6395 44.3439 39.3387 45.0392 40.1981 45.0392H49.1903C48.038 47.0431 47.2801 49.3048 47.038 51.7189H40.206C39.3427 51.7189 38.6474 52.4181 38.6474 53.2775C38.6474 54.1408 39.3466 54.8361 40.206 54.8361H47.0185C47.2451 57.547 48.1162 60.0744 49.4755 62.2658H40.206C39.3427 62.2658 38.6474 62.965 38.6474 63.8244C38.6474 64.6877 39.3466 65.383 40.206 65.383H51.972C54.7454 68.1057 58.4564 69.8557 62.562 70.0744V77.6369C62.5659 80.0978 60.6124 82.09 58.21 82.09ZM93.815 84.1994C93.5963 84.4338 93.2955 84.5666 92.9791 84.5705C92.6236 84.5509 92.2994 84.4299 92.0377 84.1681L81.7486 73.7341L81.7174 73.7029C81.4166 73.4138 81.3658 73.0349 81.3619 72.8357C81.358 72.5193 81.4596 72.2185 81.6354 71.9802C81.6901 71.9412 81.7447 71.9021 81.7916 71.8513C81.8424 71.8045 81.8815 71.7498 81.9205 71.6951C82.1823 71.5076 82.4479 71.4529 82.6432 71.4529C82.9869 71.4529 83.3112 71.5896 83.5573 71.8396L93.8733 82.3006C94.1115 82.5311 94.2443 82.8397 94.2522 83.1795C94.2561 83.5467 94.1119 83.8986 93.815 84.1994Z" fill="black"/>
</svg>
